X: 14
T: The Road To Glountane
R: reel
M: 4/4
L: 1/8
K: Amaj
E2 E>F A2 A>B | c>ee>c B>A F2 | f2 e>c A>Bc>d | e>cB>A F<AA>F |E2 E>F A2 A>B | c>ee>c B>A F2 | f2 e>c A>Bc>d | e<cB>c A2 A2 ||e2 e>f a2 a>f | e>cB>A F>A A2 | c2 A>B c>BB>A | c2 B>A F>A A2 |e2 e>f a2 a>f | e>cB>A F>A A2 | c2 A>B c>BB>A | c>eB>c A2 A |]c2 A>B c>BB>A |[1 c2 B>A F>A :|[2 c>eB>c A2 A |]


Tune 1615	Setting 15027

